src/assets/icons/call.svg

<svg width="24" height="24" viewBox="0 0 24 24" fill="none" xmlns="http://www.w3.org/2000/svg">
<path d="M11.4004 4.75C12.0504 4.750115 12.6558 5.03753 13.0889 5.51855C13.5195 5.99709 13.7499 6.6311 13.75 7.27734V19.7227C13.7499 20.3689 13.5195 21.0029 13.0889 21.4814C12.6558 21.9625 12.0504 22.2499 11.4004 22.25H6.59961C5.94957 22.2499 5.34416 21.9625 4.91113 21.4814C4.48045 21.0029 4.2501 20.3689 4.25 19.7227V7.27734C4.2501 6.6311 4.48045 5.99709 4.91113 5.51855C5.34416 5.03753 5.94957 4.750115 6.59961 4.75H11.4004Z" stroke="#314158" stroke-width="1.5" stroke-linecap="round"/>
<path d="M10.3 4.4C10.5209 4.4 10.7004 4.5791 10.7004 4.8C10.7004 5.0209 10.5209 5.2004 10.3 5.2004H8.3C8.0791 5.2004 7.8996 5.0209 7.8996 4.8C7.8996 4.5791 8.0791 4.4 8.3 4.4H10.3Z" stroke="#314158" stroke-width="0.8" stroke-linecap="round"/>
<circle cx="9" cy="20" r="1" fill="#314158"/>
<path d="M17.25 7.75C19.1065 7.75 20.887 8.4875 22.1998 9.80025C23.5125 11.113 24.25 12.8935 24.25 14.75" stroke="#314158" stroke-width="1.5" stroke-linecap="round" stroke-linejoin="round" transform="rotate(-50, 20, 11)"/>
<path d="M17.25 10.25C18.3024 10.25 19.3117 10.668 20.0558 11.4122C20.7999 12.1563 21.218 13.1656 21.218 14.218" stroke="#314158" stroke-width="1.5" stroke-linecap="round" stroke-linejoin="round" transform="rotate(-50, 19, 12)"/>
</svg>

<svg fill="none" viewBox="0 0 24 24"><path stroke="currentColor" stroke-linecap="round" stroke-width="1.5" d="M11.4 4.75c.65 0 1.256.288 1.689.769.43.478.66 1.112.661 1.758v12.446c0 .646-.23 1.28-.661 1.758a2.27 2.27 0 0 1-1.689.769H6.6c-.65 0-1.256-.288-1.689-.769a2.63 2.63 0 0 1-.661-1.758V7.277c0-.646.23-1.28.661-1.758A2.27 2.27 0 0 1 6.6 4.75z"/><path stroke="currentColor" stroke-linecap="round" stroke-width=".8" d="M10.3 4.4a.4.4 0 1 1 0 .8h-2a.4.4 0 0 1 0-.8z"/><circle cx="9" cy="20" r="1" fill="currentColor"/><path stroke="currentColor" stroke-linecap="round" stroke-linejoin="round" stroke-width="1.5" d="M15.743 11.018a7 7 0 0 1 9.862-.863"/><path stroke="currentColor" stroke-linecap="round" stroke-linejoin="round" stroke-width="1.5" d="M16.535 12.216a3.97 3.97 0 0 1 5.59-.49"/></svg>
